communes/3721.svg

<?xml version="1.0" encoding="UTF-8" standalone="no"?>
<!-- Created with Inkscape (http://www.inkscape.org/) -->

<svg
   xmlns:dc="http://purl.org/dc/elements/1.1/"
   xmlns:cc="http://creativecommons.org/ns#"
   xmlns:rdf="http://www.w3.org/1999/02/22-rdf-syntax-ns#"
   xmlns:svg="http://www.w3.org/2000/svg"
   xmlns="http://www.w3.org/2000/svg"
   xmlns:sodipodi="http://sodipodi.sourceforge.net/DTD/sodipodi-0.dtd"
   xmlns:inkscape="http://www.inkscape.org/namespaces/inkscape"
   version="1.0"
   width="208.86046"
   height="244.65999"
   id="svg2780"
   inkscape:version="0.92.4 (5da689c313, 2019-01-14)"
   sodipodi:docname="Bonaduz-blazon.svg">
  <metadata
     id="metadata27">
    <rdf:RDF>
      <cc:Work
         rdf:about="">
        <dc:format>image/svg+xml</dc:format>
        <dc:type
           rdf:resource="http://purl.org/dc/dcmitype/StillImage" />
        <dc:title></dc:title>
      </cc:Work>
    </rdf:RDF>
  </metadata>
  <sodipodi:namedview
     pagecolor="#ffffff"
     bordercolor="#666666"
     borderopacity="1"
     objecttolerance="10"
     gridtolerance="10"
     guidetolerance="10"
     inkscape:pageopacity="0"
     inkscape:pageshadow="2"
     inkscape:window-width="3259"
     inkscape:window-height="1417"
     id="namedview25"
     showgrid="false"
     inkscape:zoom="1.4142136"
     inkscape:cx="150.4474"
     inkscape:cy="238.71371"
     inkscape:window-x="-8"
     inkscape:window-y="-8"
     inkscape:window-maximized="1"
     inkscape:current-layer="svg2780"
     inkscape:measure-start="104.255,149.787"
     inkscape:measure-end="104.255,126.383"
     showguides="true"
     inkscape:object-paths="true"
     inkscape:snap-intersection-paths="true"
     inkscape:snap-global="false" />
  <defs
     id="defs2782" />
  <path
     inkscape:connector-curvature="0"
     style="fill:#ffffff;fill-opacity:1;fill-rule:evenodd;stroke:#000000;stroke-width:1.99999988;stroke-linecap:butt;stroke-miterlimit:4;stroke-dashoffset:0;stroke-opacity:1"
     id="path4212"
     d="m 1,1 3.761095,158.00304 c 2.686489,112.85918 196.651755,112.85918 199.338255,0 L 207.86045,1 Z" />
  <path
     style="opacity:1;fill:#1b63c6;fill-opacity:1;stroke:#000000;stroke-width:1;stroke-miterlimit:9;stroke-dasharray:none;stroke-dashoffset:4.57999992;stroke-opacity:1"
     d="M 1.0000033,1 104.43024,104.43024 207.86045,1 l -1.10351,46.358337 -86.3267,86.326693 v 108.95855 c -11.10657,1.42473 -21.719231,1.24981 -32,0 V 133.68507 L 2.1035112,47.358342 Z"
     id="path6770"
     inkscape:connector-curvature="0"
     sodipodi:nodetypes="cccccccccc" />
  <path
     inkscape:connector-curvature="0"
     style="fill:none;fill-opacity:1;fill-rule:evenodd;stroke:#000000;stroke-width:1.99999988;stroke-linecap:butt;stroke-miterlimit:4;stroke-dashoffset:0;stroke-opacity:1"
     id="path4212-9"
     d="M 1,0.99999834 4.761095,159.00304 c 2.686489,112.85918 196.651755,112.85918 199.338255,0 l 3.7611,-158.00304166 z" />
  <path
     id="path850-6-6"
     style="opacity:1;fill:#cc2918;fill-opacity:1;stroke:#000000;stroke-width:1;stroke-miterlimit:4;stroke-dasharray:none;stroke-dashoffset:4.57999992;stroke-opacity:1"
     d="M 137.34139,26.838452 121.11976,45.831258 137.34141,64.824049 112.77497,60.278363 104.43024,83.816866 96.085464,60.27836 71.519047,64.824053 87.740697,45.831248 71.51904,26.83844 96.085464,31.384135 104.43024,7.8456376 112.775,31.38414 Z"
     inkscape:connector-curvature="0"
     sodipodi:nodetypes="ccccccccccccc" />
</svg>

<?xml version="1.0" encoding="UTF-8"?>
<svg version="1.0" viewBox="0 0 208.86 244.66" xmlns="http://www.w3.org/2000/svg" xmlns:cc="http://creativecommons.org/ns#" xmlns:dc="http://purl.org/dc/elements/1.1/" xmlns:rdf="http://www.w3.org/1999/02/22-rdf-syntax-ns#">
<metadata>
<rdf:RDF>
<cc:Work rdf:about="">
<dc:format>image/svg+xml</dc:format>
<dc:type rdf:resource="http://purl.org/dc/dcmitype/StillImage"/>
<dc:title/>
</cc:Work>
</rdf:RDF>
</metadata>
<path d="m1 1 3.7611 158c2.6865 112.86 196.65 112.86 199.34 0l3.7611-158z" fill="#fff" fill-rule="evenodd" stroke="#000" stroke-width="2"/>
<path d="m1 1 103.43 103.43 103.43-103.43-1.1035 46.358-86.327 86.327v108.96c-11.107 1.4247-21.719 1.2498-32 0v-108.96l-86.327-86.327z" fill="#1b63c6" stroke="#000" stroke-dashoffset="4.58" stroke-miterlimit="9"/>
<path d="m1 1 3.7611 158c2.6865 112.86 196.65 112.86 199.34 0l3.7611-158z" fill="none" stroke="#000" stroke-width="2"/>
<path d="m137.34 26.838-16.222 18.993 16.222 18.993-24.566-4.5457-8.3447 23.539-8.3448-23.539-24.566 4.5457 16.222-18.993-16.222-18.993 24.566 4.5457 8.3448-23.538 8.3448 23.539z" fill="#cc2918" stroke="#000" stroke-dashoffset="4.58"/>
</svg>
